src/assets/volume-min.svg

<?xml version="1.0" encoding="utf-8"?><!-- Uploaded to: SVG Repo, www.svgrepo.com, Generator: SVG Repo Mixer Tools -->
<svg width="800px" height="800px" viewBox="0 0 24 24" fill="none" xmlns="http://www.w3.org/2000/svg">
<path d="M18 9.00009C18.6277 9.83575 18.9996 10.8745 18.9996 12.0001C18.9996 13.1257 18.6277 14.1644 18 15.0001M6.6 9.00009H7.5012C8.05213 9.00009 8.32759 9.00009 8.58285 8.93141C8.80903 8.87056 9.02275 8.77046 9.21429 8.63566C9.43047 8.48353 9.60681 8.27191 9.95951 7.84868L12.5854 4.69758C13.0211 4.17476 13.2389 3.91335 13.4292 3.88614C13.594 3.86258 13.7597 3.92258 13.8712 4.04617C14 4.18889 14 4.52917 14 5.20973V18.7904C14 19.471 14 19.8113 13.8712 19.954C13.7597 20.0776 13.594 20.1376 13.4292 20.114C13.239 20.0868 13.0211 19.8254 12.5854 19.3026L9.95951 16.1515C9.60681 15.7283 9.43047 15.5166 9.21429 15.3645C9.02275 15.2297 8.80903 15.1296 8.58285 15.0688C8.32759 15.0001 8.05213 15.0001 7.5012 15.0001H6.6C6.03995 15.0001 5.75992 15.0001 5.54601 14.8911C5.35785 14.7952 5.20487 14.6422 5.10899 14.4541C5 14.2402 5 13.9601 5 13.4001V10.6001C5 10.04 5 9.76001 5.10899 9.54609C5.20487 9.35793 5.35785 9.20495 5.54601 9.10908C5.75992 9.00009 6.03995 9.00009 6.6 9.00009Z" stroke="currentColor" stroke-width="2" stroke-linecap="round" stroke-linejoin="round"/>
</svg>

<svg width="800" height="800" viewBox="0 0 24 24" fill="none" xmlns="http://www.w3.org/2000/svg"><path d="M18 9c.628.836 1 1.874 1 3a4.978 4.978 0 01-1 3M6.6 9h.901c.551 0 .827 0 1.082-.069a2 2 0 00.631-.295c.216-.152.393-.364.746-.787l2.625-3.151c.436-.523.654-.785.844-.812a.5.5 0 01.442.16C14 4.19 14 4.53 14 5.21v13.58c0 .681 0 1.021-.129 1.164a.5.5 0 01-.442.16c-.19-.027-.408-.289-.844-.811L9.96 16.15c-.353-.423-.53-.634-.746-.787a1.999 1.999 0 00-.631-.295C8.328 15 8.053 15 7.5 15H6.6c-.56 0-.84 0-1.054-.109a1 1 0 01-.437-.437C5 14.24 5 13.96 5 13.4v-2.8c0-.56 0-.84.109-1.054a1 1 0 01.437-.437C5.76 9 6.04 9 6.6 9z" stroke="currentColor" stroke-width="2" stroke-linecap="round" stroke-linejoin="round"/></svg>
